X: 1
T: Crowcombe and Stogumber
T: 8x32 R 3C 
P: Crowcombe and Stogumber
C: Dave Wiesler, 2001
C: arr. T. Traub 8-21/2004
R: Reel
M: 4/4
L: 1/8
K: D
|: (3ABc|"D"dcdA F2 dc|dAFA dfed|"A"cdef gece|"D"defd "A"A2 (3ABc|"D"dcdA F2 dc|
dAFA dfed|"A"cdef gece|"D"d2 f2 d2 :||: d=c|"G"Bdgd ad g2|"D"Adfd gd f2|"A"efed cABc|
"D"defg "D7"a2 d=c|"G"Bdgd ad g2|"D"Adfd "Bm"gd f2 |"E7"efed "A"cABc|"D"d2 f2 d2 :|
